img/svg2/moods-orange.svg

<?xml version="1.0" encoding="UTF-8"?>
<svg width="336" height="322.49" version="1.1" viewBox="0 0 336 322.49332" xml:space="preserve" xmlns="http://www.w3.org/2000/svg" xmlns:cc="http://creativecommons.org/ns#" xmlns:dc="http://purl.org/dc/elements/1.1/" xmlns:rdf="http://www.w3.org/1999/02/22-rdf-syntax-ns#"><metadata><rdf:rdf><cc:work rdf:about=""><dc:format>image/svg+xml</dc:format>
                <dc:type rdf:resource="http://purl.org/dc/dcmitype/StillImage"/>
            </cc:work></rdf:rdf></metadata>
    <defs><clipPath id="h"><path d="m846.74 1100.9 1479.5 480.71-1479.5 646.1z"/></clipPath>
        <linearGradient id="d" x2="1" gradientTransform="matrix(870.61 -82.979 -82.979 -870.61 698.64 1678.4)" gradientUnits="userSpaceOnUse"><stop stop-color="#f6cc29" offset="0"/>
            <stop stop-color="#f1bc29" offset="1"/>
        </linearGradient>
        <clipPath id="g"><path d="m1508.5 191.04 817.71 1390.6-739.74-695.28z"/></clipPath>
        <linearGradient id="c" x2="1" gradientTransform="matrix(76.147 814.17 814.17 -76.147 1873.5 417.85)" gradientUnits="userSpaceOnUse"><stop stop-color="#f68712" offset="0"/>
            <stop stop-color="#f1bc29" offset="1"/>
        </linearGradient>
        <clipPath id="f"><path d="m846.74 1100.9-652.94 212.76 652.94 914.05z"/></clipPath>
        <linearGradient id="b" x2="1" gradientTransform="matrix(-402.84 -1095.5 -1095.5 402.84 859.59 2130)" gradientUnits="userSpaceOnUse"><stop stop-color="#f6cc29" offset="0"/>
            <stop stop-color="#f68712" offset="1"/>
        </linearGradient>
        <clipPath id="e"><path d="m846.74 1100.9-403.54-554.82-249.4 767.58z"/></clipPath>
        <linearGradient id="a" x2="1" gradientTransform="matrix(252.73 632 632 -252.73 350.8 783.49)" gradientUnits="userSpaceOnUse"><stop stop-color="#c0511f" offset="0"/>
            <stop stop-color="#f68712" offset="1"/>
        </linearGradient>
    </defs>
    <g transform="matrix(1.3333 0 0 -1.3333 0 322.49)"><g transform="scale(.1)"><path d="m846.74 1100.9 1479.5 480.71-817.71-1390.6z" fill="#f68712"/>
            <g clip-path="url(#h)"><path d="m846.74 1100.9 1479.5 480.71-1479.5 646.1z" fill="url(#d)"/></g>
            <path d="m846.74 1100.9 1479.5 480.71-739.74 82.69z" fill="#f1bc29"/>
            <path d="m846.74 1100.9 1479.5 480.71-739.74-695.28z" fill="#dea822"/>
            <g clip-path="url(#g)"><path d="m1508.5 191.04 817.71 1390.6-739.74-695.28z" fill="url(#c)"/></g>
            <path d="m846.74 2227.7 1479.5-646.1-739.74 82.69z" fill="#f6cc29"/>
            <g clip-path="url(#f)"><path d="m846.74 1100.9-652.94 212.76 652.94 914.05z" fill="url(#b)"/></g>
            <path d="m848.8 1100.9-652.94 212.76 328.54 347.08z" fill="#f1bc29"/>
            <path d="m846.74 1100.9v1126.8l-324.4-566.97z" fill="#fbd446"/>
            <path d="m846.74 1100.9-403.54-554.82 1065.3-355.04z" fill="#e47518"/>
            <path d="m975.84 645.97-532.64-99.891 1065.3-355.04z" fill="#a8401f"/>
            <path d="m975.84 645.97-532.64-99.891 403.54 554.82z" fill="#c0511f"/>
            <g clip-path="url(#e)"><path d="m846.74 1100.9-403.54-554.82-249.4 767.58z" fill="url(#a)"/></g>
            <path d="m846.74 1100.9-403.54-554.82 79.137 383.79z" fill="#b1451f"/>
            <path d="m193.8 1313.7 249.4-767.58 79.137 383.79z" fill="#c0511f"/>
            <path d="m539.73 1660.7c0-10.76-8.711-19.47-19.457-19.47-10.75 0-19.465 8.71-19.465 19.47 0 10.74 8.715 19.46 19.465 19.46 10.746 0 19.457-8.72 19.457-19.46" fill="#dea822"/>
            <path d="m1605.9 1660.7c0-10.76-8.71-19.47-19.47-19.47-10.74 0-19.45 8.71-19.45 19.47 0 10.74 8.71 19.46 19.45 19.46 10.76 0 19.47-8.72 19.47-19.46" fill="#dea822"/>
            <path d="m1605.9 886.33c0-10.75-8.71-19.473-19.47-19.473-10.74 0-19.45 8.723-19.45 19.473 0 10.738 8.71 19.457 19.45 19.457 10.76 0 19.47-8.719 19.47-19.457" fill="#d3631d"/>
            <path d="m995.3 645.97c0-10.75-8.711-19.457-19.461-19.457-10.746 0-19.457 8.707-19.457 19.457s8.711 19.461 19.457 19.461c10.75 0 19.461-8.711 19.461-19.461" fill="#8d301c"/>
            <path d="m541.79 929.87c0-10.742-8.711-19.461-19.457-19.461-10.75 0-19.465 8.719-19.465 19.461 0 10.75 8.715 19.461 19.465 19.461 10.746 0 19.457-8.711 19.457-19.461" fill="#a8401f"/>
            <path d="m885.37 1100.9c0-20.19-16.375-36.56-36.566-36.56-20.203 0-36.571 16.37-36.571 36.56 0 20.2 16.368 36.58 36.571 36.58 20.191 0 36.566-16.38 36.566-36.58" fill="#7b2c19"/>
        </g></g>
</svg>

<?xml version="1.0" encoding="UTF-8" standalone="no"?>
<svg
   xmlns:dc="http://purl.org/dc/elements/1.1/"
   xmlns:cc="http://creativecommons.org/ns#"
   xmlns:rdf="http://www.w3.org/1999/02/22-rdf-syntax-ns#"
   xmlns:svg="http://www.w3.org/2000/svg"
   xmlns="http://www.w3.org/2000/svg"
   viewBox="0 0 336 322.49332"
   height="322.49332"
   width="336"
   xml:space="preserve"
   id="svg2"
   version="1.1"><metadata
     id="metadata8"><rdf:RDF><cc:Work
         rdf:about=""><dc:format>image/svg+xml</dc:format><dc:type
           rdf:resource="http://purl.org/dc/dcmitype/StillImage" /></cc:Work></rdf:RDF></metadata><defs
     id="defs6"><clipPath
       id="clipPath22"
       clipPathUnits="userSpaceOnUse"><path
         id="path20"
         d="M 846.738,1100.9 2326.2,1581.61 846.738,2227.71 Z" /></clipPath><linearGradient
       id="linearGradient28"
       spreadMethod="pad"
       gradientTransform="matrix(870.608,-82.9791,-82.9791,-870.608,698.643,1678.42)"
       gradientUnits="userSpaceOnUse"
       y2="0"
       x2="1"
       y1="0"
       x1="0"><stop
         id="stop24"
         offset="0"
         style="stop-opacity:1;stop-color:#f6cc29" /><stop
         id="stop26"
         offset="1"
         style="stop-opacity:1;stop-color:#f1bc29" /></linearGradient><clipPath
       id="clipPath42"
       clipPathUnits="userSpaceOnUse"><path
         id="path40"
         d="M 1508.49,191.039 2326.2,1581.61 1586.46,886.332 Z" /></clipPath><linearGradient
       id="linearGradient48"
       spreadMethod="pad"
       gradientTransform="matrix(76.1472,814.167,814.167,-76.1472,1873.54,417.85)"
       gradientUnits="userSpaceOnUse"
       y2="0"
       x2="1"
       y1="0"
       x1="0"><stop
         id="stop44"
         offset="0"
         style="stop-opacity:1;stop-color:#f68712" /><stop
         id="stop46"
         offset="1"
         style="stop-opacity:1;stop-color:#f1bc29" /></linearGradient><clipPath
       id="clipPath60"
       clipPathUnits="userSpaceOnUse"><path
         id="path58"
         d="m 846.738,1100.9 -652.937,212.76 652.937,914.05 z" /></clipPath><linearGradient
       id="linearGradient66"
       spreadMethod="pad"
       gradientTransform="matrix(-402.839,-1095.5,-1095.5,402.839,859.59,2130.05)"
       gradientUnits="userSpaceOnUse"
       y2="0"
       x2="1"
       y1="0"
       x1="0"><stop
         id="stop62"
         offset="0"
         style="stop-opacity:1;stop-color:#f6cc29" /><stop
         id="stop64"
         offset="1"
         style="stop-opacity:1;stop-color:#f68712" /></linearGradient><clipPath
       id="clipPath86"
       clipPathUnits="userSpaceOnUse"><path
         id="path84"
         d="M 846.738,1100.9 443.199,546.078 193.801,1313.66 Z" /></clipPath><linearGradient
       id="linearGradient92"
       spreadMethod="pad"
       gradientTransform="matrix(252.73,631.997,631.997,-252.73,350.801,783.49)"
       gradientUnits="userSpaceOnUse"
       y2="0"
       x2="1"
       y1="0"
       x1="0"><stop
         id="stop88"
         offset="0"
         style="stop-opacity:1;stop-color:#c0511f" /><stop
         id="stop90"
         offset="1"
         style="stop-opacity:1;stop-color:#f68712" /></linearGradient></defs><g
     transform="matrix(1.3333333,0,0,-1.3333333,0,322.49333)"
     id="g10"><g
       transform="scale(0.1)"
       id="g12"><path
         id="path14"
         style="fill:#f68712;fill-opacity:1;fill-rule:nonzero;stroke:none"
         d="M 846.738,1100.9 2326.2,1581.61 1508.49,191.039 Z" /><g
         id="g16"><g
           clip-path="url(#clipPath22)"
           id="g18"><path
             id="path30"
             style="fill:url(#linearGradient28);fill-opacity:1;fill-rule:nonzero;stroke:none"
             d="M 846.738,1100.9 2326.2,1581.61 846.738,2227.71 Z" /></g></g><path
         id="path32"
         style="fill:#f1bc29;fill-opacity:1;fill-rule:nonzero;stroke:none"
         d="M 846.738,1100.9 2326.2,1581.61 1586.46,1664.3 Z" /><path
         id="path34"
         style="fill:#dea822;fill-opacity:1;fill-rule:nonzero;stroke:none"
         d="M 846.738,1100.9 2326.2,1581.61 1586.46,886.332 Z" /><g
         id="g36"><g
           clip-path="url(#clipPath42)"
           id="g38"><path
             id="path50"
             style="fill:url(#linearGradient48);fill-opacity:1;fill-rule:nonzero;stroke:none"
             d="M 1508.49,191.039 2326.2,1581.61 1586.46,886.332 Z" /></g></g><path
         id="path52"
         style="fill:#f6cc29;fill-opacity:1;fill-rule:nonzero;stroke:none"
         d="M 846.738,2227.71 2326.2,1581.61 1586.46,1664.3 Z" /><g
         id="g54"><g
           clip-path="url(#clipPath60)"
           id="g56"><path
             id="path68"
             style="fill:url(#linearGradient66);fill-opacity:1;fill-rule:nonzero;stroke:none"
             d="m 846.738,1100.9 -652.937,212.76 652.937,914.05 z" /></g></g><path
         id="path70"
         style="fill:#f1bc29;fill-opacity:1;fill-rule:nonzero;stroke:none"
         d="m 848.801,1100.9 -652.942,212.76 328.536,347.08 z" /><path
         id="path72"
         style="fill:#fbd446;fill-opacity:1;fill-rule:nonzero;stroke:none"
         d="M 846.738,1100.9 V 2227.71 L 522.336,1660.74 Z" /><path
         id="path74"
         style="fill:#e47518;fill-opacity:1;fill-rule:nonzero;stroke:none"
         d="M 846.738,1100.9 443.199,546.078 1508.49,191.039 Z" /><path
         id="path76"
         style="fill:#a8401f;fill-opacity:1;fill-rule:nonzero;stroke:none"
         d="M 975.844,645.969 443.199,546.078 1508.49,191.039 Z" /><path
         id="path78"
         style="fill:#c0511f;fill-opacity:1;fill-rule:nonzero;stroke:none"
         d="M 975.844,645.969 443.199,546.078 846.738,1100.9 Z" /><g
         id="g80"><g
           clip-path="url(#clipPath86)"
           id="g82"><path
             id="path94"
             style="fill:url(#linearGradient92);fill-opacity:1;fill-rule:nonzero;stroke:none"
             d="M 846.738,1100.9 443.199,546.078 193.801,1313.66 Z" /></g></g><path
         id="path96"
         style="fill:#b1451f;fill-opacity:1;fill-rule:nonzero;stroke:none"
         d="M 846.738,1100.9 443.199,546.078 522.336,929.871 Z" /><path
         id="path98"
         style="fill:#c0511f;fill-opacity:1;fill-rule:nonzero;stroke:none"
         d="M 193.801,1313.66 443.199,546.078 522.336,929.871 Z" /><path
         id="path100"
         style="fill:#dea822;fill-opacity:1;fill-rule:nonzero;stroke:none"
         d="m 539.727,1660.74 c 0,-10.76 -8.711,-19.47 -19.457,-19.47 -10.75,0 -19.465,8.71 -19.465,19.47 0,10.74 8.715,19.46 19.465,19.46 10.746,0 19.457,-8.72 19.457,-19.46" /><path
         id="path102"
         style="fill:#dea822;fill-opacity:1;fill-rule:nonzero;stroke:none"
         d="m 1605.93,1660.74 c 0,-10.76 -8.71,-19.47 -19.47,-19.47 -10.74,0 -19.45,8.71 -19.45,19.47 0,10.74 8.71,19.46 19.45,19.46 10.76,0 19.47,-8.72 19.47,-19.46" /><path
         id="path104"
         style="fill:#d3631d;fill-opacity:1;fill-rule:nonzero;stroke:none"
         d="m 1605.93,886.332 c 0,-10.75 -8.71,-19.473 -19.47,-19.473 -10.74,0 -19.45,8.723 -19.45,19.473 0,10.738 8.71,19.457 19.45,19.457 10.76,0 19.47,-8.719 19.47,-19.457" /><path
         id="path106"
         style="fill:#8d301c;fill-opacity:1;fill-rule:nonzero;stroke:none"
         d="m 995.305,645.969 c 0,-10.75 -8.711,-19.457 -19.461,-19.457 -10.746,0 -19.457,8.707 -19.457,19.457 0,10.75 8.711,19.461 19.457,19.461 10.75,0 19.461,-8.711 19.461,-19.461" /><path
         id="path108"
         style="fill:#a8401f;fill-opacity:1;fill-rule:nonzero;stroke:none"
         d="m 541.793,929.871 c 0,-10.742 -8.711,-19.461 -19.457,-19.461 -10.75,0 -19.465,8.719 -19.465,19.461 0,10.75 8.715,19.461 19.465,19.461 10.746,0 19.457,-8.711 19.457,-19.461" /><path
         id="path110"
         style="fill:#7b2c19;fill-opacity:1;fill-rule:nonzero;stroke:none"
         d="m 885.367,1100.9 c 0,-20.19 -16.375,-36.56 -36.566,-36.56 -20.203,0 -36.571,16.37 -36.571,36.56 0,20.2 16.368,36.58 36.571,36.58 20.191,0 36.566,-16.38 36.566,-36.58" /></g></g></svg>
